SVG_Azure_All/Diagnostics Setting.svg

<?xml version="1.0" encoding="UTF-8" standalone="no"?>
<!-- Generated by Microsoft Visio, SVG Export Diagnostics Setting.svg Page-1 -->

<svg
   xmlns:dc="http://purl.org/dc/elements/1.1/"
   xmlns:cc="http://creativecommons.org/ns#"
   xmlns:rdf="http://www.w3.org/1999/02/22-rdf-syntax-ns#"
   xmlns:svg="http://www.w3.org/2000/svg"
   xmlns="http://www.w3.org/2000/svg"
   xmlns:sodipodi="http://sodipodi.sourceforge.net/DTD/sodipodi-0.dtd"
   xmlns:inkscape="http://www.inkscape.org/namespaces/inkscape"
   width="0.66932648in"
   height="0.78778142in"
   viewBox="0 0 48.191623 56.720461"
   xml:space="preserve"
   class="st6"
   version="1.1"
   id="svg44"
   sodipodi:docname="Diagnostics Setting.svg"
   style="font-size:12px;overflow:visible;color-interpolation-filters:sRGB;fill:none;fill-rule:evenodd;stroke-linecap:square;stroke-miterlimit:3"
   inkscape:version="0.92.5 (2060ec1f9f, 2020-04-08)"><metadata
   id="metadata48"><rdf:RDF><cc:Work
       rdf:about=""><dc:format>image/svg+xml</dc:format><dc:type
         rdf:resource="http://purl.org/dc/dcmitype/StillImage" /></cc:Work></rdf:RDF></metadata><sodipodi:namedview
   pagecolor="#ffffff"
   bordercolor="#666666"
   borderopacity="1"
   objecttolerance="10"
   gridtolerance="10"
   guidetolerance="10"
   inkscape:pageopacity="0"
   inkscape:pageshadow="2"
   inkscape:window-width="640"
   inkscape:window-height="480"
   id="namedview46"
   showgrid="false"
   inkscape:zoom="1.4189678"
   inkscape:cx="32.127221"
   inkscape:cy="37.806268"
   inkscape:window-x="0"
   inkscape:window-y="0"
   inkscape:window-maximized="0"
   inkscape:current-layer="svg44" />
	<style
   type="text/css"
   id="style2">
	<![CDATA[
		.st1 {fill:#5e9624;stroke:none;stroke-linecap:butt;stroke-width:34}
		.st2 {fill:#ffffff}
		.st3 {stroke:none;stroke-linecap:butt;stroke-width:34}
		.st4 {fill:url(#grad0-11);stroke:none;stroke-linecap:butt;stroke-width:34}
		.st5 {fill:#ffffff;stroke:none;stroke-linecap:butt;stroke-width:34}
		.st6 {fill:none;fill-rule:evenodd;font-size:12px;overflow:visible;stroke-linecap:square;stroke-miterlimit:3}
	]]>
	</style>

	<defs
   id="Patterns_And_Gradients">
		<linearGradient
   id="grad0-11"
   x1="-1.1031035e-05"
   y1="66.437797"
   x2="46.562612"
   y2="66.437797"
   gradientTransform="scale(0.9058876,1.1038897)"
   gradientUnits="userSpaceOnUse">
			<stop
   offset="0"
   stop-color="#5e9624"
   stop-opacity="1"
   id="stop4" />
			<stop
   offset="0.31"
   stop-color="#69a828"
   stop-opacity="1"
   id="stop6" />
			<stop
   offset="0.93"
   stop-color="#86d633"
   stop-opacity="1"
   id="stop8" />
		</linearGradient>
	</defs>
	<g
   id="g42"
   transform="translate(-34.000063,-34.003841)">
		<title
   id="title12">Page-1</title>
		<g
   id="group5632-1"
   transform="translate(34,-34.0157)">
			<title
   id="title14">Diagnostics Setting</title>
			<g
   id="group5633-2">
				<title
   id="title16">g10</title>
				<g
   id="shape5634-3"
   transform="translate(0,-0.0998701)">
					<title
   id="title18">path2</title>
					<path
   d="M 45.03,68.15 H 5.63 a 1.93435,1.89753 -180 0 0 -1.49,0.66 l -4.14,4.7 45.41,45.14 -6.79,6.09 h 3.39 a 2.40945,2.36359 -180 0 0 1.56,-0.57 l 3.97,-3.56 a 2.00222,1.96411 -180 0 0 0.65,-1.43 V 70.91 a 2.74881,2.69649 -180 0 0 -3.16,-2.76 z"
   class="st1"
   id="path20"
   inkscape:connector-curvature="0"
   style="fill:#5e9624;stroke:none;stroke-width:34;stroke-linecap:butt" />
				</g>
				<g
   id="shape5635-5"
   transform="translate(3.32572,-2.36359)">
					<title
   id="title23">path4</title>
					<path
   d="m 0,75.74 2.51,-2.8 a 1.69679,1.6645 0 0 1 1.19,-0.6 h 36.92 a 1.76467,1.73108 0 0 1 1.77,1.73 v 45.87 a 1.76467,1.73108 0 0 1 -0.58,1.27 l -3.9,3.53 z"
   class="st2"
   id="path25"
   inkscape:connector-curvature="0"
   style="fill:#ffffff" />
					<path
   d="m 0,75.74 2.51,-2.8 a 1.69679,1.6645 0 0 1 1.19,-0.6 h 36.92 a 1.76467,1.73108 0 0 1 1.77,1.73 v 45.87 a 1.76467,1.73108 0 0 1 -0.58,1.27 l -3.9,3.53"
   class="st3"
   id="path27"
   inkscape:connector-curvature="0"
   style="stroke:none;stroke-width:34;stroke-linecap:butt" />
				</g>
				<g
   id="shape5636-8"
   transform="translate(0.0678718)">
					<title
   id="title30">path6</title>
					<path
   d="M 40.89,73.34 H 0.17 A 0.203615,0.19974 -180 0 0 3.21e-4,73.53974 L 0,123.47 a 1.28956,1.26502 -180 0 0 1.29,1.27 h 39.6 a 1.28956,1.26502 -180 0 0 1.29,-1.27 V 74.64 a 1.28956,1.26502 -180 0 0 -1.29,-1.3 z"
   class="st4"
   id="path32"
   inkscape:connector-curvature="0"
   style="fill:url(#grad0-11);stroke:none;stroke-width:34;stroke-linecap:butt" />
				</g>
				<g
   id="shape5637-12"
   transform="translate(5.294,-18.0432)">
					<title
   id="title35">path8</title>
					<path
   d="m 30.58,110.46 a 1.25563,1.23173 -180 0 0 -1.26,-1.3 h -6.28 a 0.542974,0.53264 -180 0 0 -0.509038,0.29961 L 19.92,114.05 l -4.28,-8.49 -3.97,12.15 -3.39,-8.65 -4.48,8.12 a 0.610846,0.59922 0 0 1 -0.509038,0.3329 L 1.26,117.51 a 1.25563,1.23173 -180 0 0 -1.26,1.1 1.25563,1.23173 -180 0 0 1.26,1.37 h 3.39 a 0.610846,0.59922 -180 0 0 0.542974,-0.3329 L 7.84,114.75 l 4.11,9.99 4.17,-12.85 3.66,7.29 4.11,-7.22 a 0.542974,0.53264 0 0 1 0.509038,-0.29961 L 29.32,111.66 a 1.25563,1.23173 -180 0 0 1.26,-1.2 z"
   class="st5"
   id="path37"
   inkscape:connector-curvature="0"
   style="fill:#ffffff;stroke:none;stroke-width:34;stroke-linecap:butt" />
				</g>
			</g>
		</g>
	</g>
</svg>

<?xml version="1.0" encoding="UTF-8" standalone="no"?>
<!DOCTYPE svg PUBLIC "-//W3C//DTD SVG 1.1//EN" "http://www.w3.org/Graphics/SVG/1.1/DTD/svg11.dtd">
<!-- Generated by Microsoft Visio, SVG Export Diagnostics Setting.svg Page-1 -->
<svg xmlns="http://www.w3.org/2000/svg" xmlns:xlink="http://www.w3.org/1999/xlink" xmlns:ev="http://www.w3.org/2001/xml-events"
		width="1.61376in" height="1.73248in" viewBox="0 0 116.191 124.739" xml:space="preserve" color-interpolation-filters="sRGB"
		class="st6">
	<style type="text/css">
	<![CDATA[
		.st1 {fill:#5e9624;stroke:none;stroke-linecap:butt;stroke-width:34}
		.st2 {fill:#ffffff}
		.st3 {stroke:none;stroke-linecap:butt;stroke-width:34}
		.st4 {fill:url(#grad0-11);stroke:none;stroke-linecap:butt;stroke-width:34}
		.st5 {fill:#ffffff;stroke:none;stroke-linecap:butt;stroke-width:34}
		.st6 {fill:none;fill-rule:evenodd;font-size:12px;overflow:visible;stroke-linecap:square;stroke-miterlimit:3}
	]]>
	</style>

	<defs id="Patterns_And_Gradients">
		<linearGradient id="grad0-11" x1="0" y1="0" x2="1" y2="0" gradientTransform="rotate(-90 0.5 0.5)">
			<stop offset="0" stop-color="#5e9624" stop-opacity="1"/>
			<stop offset="0.31" stop-color="#69a828" stop-opacity="1"/>
			<stop offset="0.93" stop-color="#86d633" stop-opacity="1"/>
		</linearGradient>
	</defs>
	<g>
		<title>Page-1</title>
		<g id="group5513-1" transform="translate(34,-34.0157)">
			<title>Diagnostics Setting</title>
			<g id="group5514-2">
				<title>g10</title>
				<g id="shape5515-3" transform="translate(0,-0.0998701)">
					<title>path2</title>
					<path d="M45.03 68.15 L5.63 68.15 A1.93435 1.89753 -180 0 0 4.14 68.81 L0 73.51 L45.41 118.65 L38.62 124.74 L42.01
								 124.74 A2.40945 2.36359 -180 0 0 43.57 124.17 L47.54 120.61 A2.00222 1.96411 -180 0 0 48.19 119.18
								 L48.19 70.91 A2.74881 2.69649 -180 0 0 45.03 68.15 Z" class="st1"/>
				</g>
				<g id="shape5516-5" transform="translate(3.32572,-2.36359)">
					<title>path4</title>
					<path d="M0 75.74 L2.51 72.94 A1.69679 1.6645 0 0 1 3.7 72.34 L40.62 72.34 A1.76467 1.73108 0 0 1 42.39 74.07
								 L42.39 119.94 A1.76467 1.73108 0 0 1 41.81 121.21 L37.91 124.74 L0 75.74 Z" class="st2"/>
					<path d="M0 75.74 L2.51 72.94 A1.69679 1.6645 0 0 1 3.7 72.34 L40.62 72.34 A1.76467 1.73108 0 0 1 42.39 74.07
								 L42.39 119.94 A1.76467 1.73108 0 0 1 41.81 121.21 L37.91 124.74" class="st3"/>
				</g>
				<g id="shape5517-8" transform="translate(0.0678718,1.42109E-14)">
					<title>path6</title>
					<path d="M40.89 73.34 L0.17 73.34 a0.203615 0.19974 -180 0 0 -0.169679 0.19974 L0 123.47 A1.28956 1.26502 -180
								 0 0 1.29 124.74 L40.89 124.74 A1.28956 1.26502 -180 0 0 42.18 123.47 L42.18 74.64 A1.28956 1.26502
								 -180 0 0 40.89 73.34 Z" class="st4"/>
				</g>
				<g id="shape5518-12" transform="translate(5.294,-18.0432)">
					<title>path8</title>
					<path d="M30.58 110.46 A1.25563 1.23173 -180 0 0 29.32 109.16 L23.04 109.16 a0.542974 0.53264 -180 0 0 -0.509038
								 0.29961 L19.92 114.05 L15.64 105.56 L11.67 117.71 L8.28 109.06 L3.8 117.18 a0.610846 0.59922 0 0
								 1 -0.509038 0.3329 L1.26 117.51 A1.25563 1.23173 -180 0 0 0 118.61 A1.25563 1.23173 -180 0 0 1.26
								 119.98 L4.65 119.98 a0.610846 0.59922 -180 0 0 0.542974 -0.3329 L7.84 114.75 L11.95 124.74 L16.12
								 111.89 L19.78 119.18 L23.89 111.96 a0.542974 0.53264 0 0 1 0.509038 -0.29961 L29.32 111.66 A1.25563
								 1.23173 -180 0 0 30.58 110.46 Z" class="st5"/>
				</g>
			</g>
		</g>
	</g>
</svg>
